X: 233
T:Stone's Rag
M:2/4
L:1/8
K:C
|:"C"cdeg- gage|agec- cde2|"F"FGAc- cdcA|"(D)"dcAc- cdcA|
"G"BdBG- G2A^A|BdBG- G4|1g2g^f afg2|"C"e4- eged:||2gdfd ecd2|"C"c4- c2g^g||
|:"A"agea- a1/2 g2e|gea- a1/2 g2e|"D"dcAd- d1/2 c2A|dcAd- dcAc|
"G"BdBG- G2A^A|BdBG- GABd|1g2g^f afg2|"C"e4- e2g^g:||2gdfd ecd2|"C"c4- z4|]
